assets/img/imagenesMiTrayectoria/tenedores.svg

<svg width="51" height="78" viewBox="0 0 51 78" fill="none" xmlns="http://www.w3.org/2000/svg">
<path d="M34.9108 4.15243C34.6548 3.62479 34.3987 3.09692 34.1537 2.5673C33.6516 1.48366 32.7138 0.717428 31.2028 0.155821C30.989 0.0575231 30.7555 0.00448329 30.5183 0.000272393C30.2812 -0.00393818 30.0459 0.0407068 29.8284 0.131345C29.64 0.233649 29.4769 0.37401 29.3506 0.542597C29.2242 0.711188 29.1375 0.903965 29.0965 1.10779C28.9208 1.78614 28.8323 2.48251 28.8324 3.18145C28.8059 4.86725 28.793 6.55336 28.7806 8.23917C28.7589 11.067 28.7374 13.9916 28.6459 16.8636C28.5161 20.9528 28.3476 25.1078 28.1848 29.1274C28.0159 33.2989 27.8404 37.6131 27.7083 41.8569C27.4857 49.0038 27.3206 56.2711 27.1609 63.2996L27.0292 69.0598C26.9889 70.8129 26.9902 72.6378 27.0339 74.4839C27.0007 75.162 27.1463 75.8373 27.457 76.4474C27.6514 76.7567 28.355 77.781 29.2538 77.9644C29.3681 77.9878 29.4846 77.9997 29.6016 78C30.539 78 31.1846 77.1878 31.4058 76.3488C31.5892 75.6144 31.6807 74.8615 31.6783 74.1063C31.7013 70.9999 31.7168 67.8934 31.7244 64.7869C31.7311 62.8781 31.7385 60.9694 31.7472 59.0603C31.7493 58.6663 31.7764 58.2761 31.8074 57.824C31.816 57.6987 31.8247 57.5697 31.8333 57.4362C32.7445 57.4362 33.6463 57.4405 34.5384 57.4491C36.8825 57.4636 39.0958 57.4781 41.3517 57.4131C43.9583 57.3379 44.9129 56.402 44.9992 53.8357C45.0044 53.4248 44.9831 53.0136 44.9346 52.6053L44.9043 52.2802C44.8533 51.6945 44.7979 51.1098 44.7422 50.5248C44.639 49.4474 44.5333 48.3327 44.4642 47.2372L44.3898 46.0448C44.0457 40.4986 43.6868 34.7635 42.3596 29.2388C40.9047 23.1891 39.1971 16.7967 36.9869 9.12254C36.4386 7.41398 35.7442 5.75155 34.9108 4.15243ZM40.6917 53.0541H32.0114C31.9298 47.7408 32.097 42.1986 32.2587 36.8361C32.3299 34.4729 32.4037 32.0298 32.4563 29.6218C32.576 24.091 32.6921 18.5603 32.8048 13.0293L32.9113 7.88074C36.9948 21.1526 40.9191 36.7035 40.691 53.0541H40.6917Z" fill="#021E26"/>
<path d="M10.4365 12.7711C10.2464 11.09 10.1615 9.3659 10.0793 7.69703C10.0417 6.92406 10.0037 6.15104 9.95554 5.37873C9.93552 5.05307 9.91632 4.72743 9.89784 4.40177C9.83676 3.33577 9.77329 2.23406 9.65379 1.15191C9.60865 0.904472 9.49825 0.673365 9.33398 0.482692C9.16971 0.292019 8.95748 0.148667 8.71918 0.0671249C8.30455 -0.0146212 7.90911 0.422586 7.58889 0.77594C7.40211 1.01944 7.29953 1.31679 7.29713 1.62349C7.26412 2.71454 7.22741 3.80548 7.18977 4.89653C7.08644 7.86312 6.97933 10.9286 7.00343 13.9469C7.02107 15.0206 7.2758 16.077 7.74944 17.041C8.22308 18.005 8.90387 18.8528 9.74341 19.5238C10.5902 20.182 11.5002 20.7549 12.4599 21.2344C12.856 21.4503 13.2648 21.672 13.6782 21.9123C13.6382 23.0581 13.5897 24.213 13.5408 25.3733C13.4279 28.0581 13.3099 30.8338 13.3013 33.5861C13.2656 43.4484 13.2715 53.4758 13.2774 63.1726C13.2796 66.8344 13.2814 70.4958 13.2823 74.1573C13.2823 74.2812 13.282 74.4058 13.2797 74.5301C13.2761 74.9138 13.2722 75.31 13.3036 75.7048C13.4138 77.0863 14.1934 78 15.2514 78C15.2722 78 15.2925 78 15.3133 78C16.4156 77.9634 17.1383 77.0134 17.1551 75.5793C17.1641 74.7911 17.1411 73.9931 17.1194 73.2215C17.1002 72.5527 17.0803 71.8618 17.0816 71.1838C17.0999 62.4969 17.123 53.8107 17.1509 45.1242L17.1706 38.2239C17.1739 37.1006 17.1765 35.9772 17.178 34.8539C17.183 31.8588 17.1886 28.7628 17.2186 25.7181C17.2285 24.7312 17.2945 23.7236 17.3582 22.7489C17.383 22.3685 17.4077 21.9882 17.4295 21.6075C20.804 20.3931 22.8167 17.9516 23.9411 13.7255C25.0209 9.66589 25.0637 5.63785 24.9647 2.23284L24.9618 2.10988C24.9552 1.75026 24.947 1.3018 24.6832 1.03217C24.2121 0.550591 23.66 0.0340969 23.0539 0.0011347C22.4791 -0.0318275 21.8237 0.660299 21.5731 1.17187C21.4093 1.57635 21.3345 2.01135 21.3539 2.44722C21.3493 2.615 21.3453 2.78272 21.3281 2.94425C21.2413 3.78511 21.1658 4.62795 21.0905 5.47113C20.9133 7.44886 20.7302 9.49251 20.3958 11.4722C20.1789 12.7531 19.63 14.0225 19.0988 15.25C18.9942 15.4923 18.8897 15.7343 18.7877 15.9752C18.6859 16.2377 18.531 16.4765 18.3328 16.6766C18.1346 16.8768 17.8972 17.034 17.6355 17.1386C17.6341 16.9507 17.6328 16.7663 17.6313 16.5852C17.6253 15.9164 17.6195 15.2846 17.641 14.659C17.6614 14.0637 17.6852 13.4684 17.709 12.8731C17.846 9.46185 17.9874 5.93431 17.4565 2.45978C17.408 1.91321 17.246 1.38284 16.981 0.902122C16.8229 0.715174 16.6223 0.568938 16.3956 0.475932C16.1689 0.382925 15.923 0.345856 15.6789 0.367776C15.1821 0.417549 14.8505 1.11004 14.7894 1.24848C14.7061 1.47771 14.6787 1.72345 14.7098 1.96535C14.7144 2.04742 14.7192 2.13024 14.7166 2.20902C14.6763 3.30512 14.6368 4.40131 14.5982 5.49782C14.4933 8.45684 14.3847 11.5166 14.2527 14.5241C14.2197 15.2493 14.1248 15.9744 14.0231 16.7391C13.9928 16.9652 13.9629 17.193 13.9338 17.4244C11.8421 16.5941 10.696 15.0679 10.4365 12.7711Z" fill="#021E26"/>
</svg>

<svg xmlns="http://www.w3.org/2000/svg" width="51" height="78" fill="none"><path fill="#021E26" d="M34.91 4.152a95 95 0 0 1-.756-1.585c-.502-1.083-1.44-1.85-2.951-2.411A1.71 1.71 0 0 0 29.828.13a1.5 1.5 0 0 0-.477.412 1.4 1.4 0 0 0-.255.565 8.3 8.3 0 0 0-.264 2.073c-.026 1.686-.039 3.372-.051 5.058-.022 2.828-.044 5.753-.135 8.625-.13 4.089-.298 8.244-.461 12.263-.17 4.172-.345 8.486-.477 12.73-.222 7.147-.387 14.414-.547 21.443l-.132 5.76c-.04 1.753-.039 3.578.005 5.424a3.9 3.9 0 0 0 .423 1.963c.194.31.898 1.334 1.797 1.517q.171.036.348.036c.937 0 1.583-.812 1.804-1.651a9.1 9.1 0 0 0 .272-2.243q.035-4.66.046-9.32.01-2.862.023-5.726c.002-.394.03-.784.06-1.236l.026-.388q1.368 0 2.705.013c2.345.015 4.558.03 6.814-.036 2.606-.075 3.56-1.011 3.647-3.577a9 9 0 0 0-.064-1.23l-.03-.326a218 218 0 0 0-.163-1.755 102 102 0 0 1-.278-3.288l-.074-1.192c-.344-5.546-.703-11.282-2.03-16.806-1.455-6.05-3.163-12.442-5.373-20.116a32 32 0 0 0-2.076-4.97m5.782 48.902h-8.68c-.082-5.313.085-10.855.247-16.218.07-2.363.145-4.806.197-7.214q.18-8.296.349-16.593l.106-5.148c4.084 13.272 8.008 28.822 7.78 45.173M10.437 12.771c-.19-1.681-.275-3.405-.358-5.074-.037-.773-.075-1.546-.123-2.318q-.03-.49-.058-.977c-.061-1.066-.125-2.168-.244-3.25A1.41 1.41 0 0 0 8.719.067c-.414-.082-.81.356-1.13.709a1.4 1.4 0 0 0-.292.847q-.05 1.637-.107 3.274c-.104 2.966-.21 6.032-.187 9.05a7.29 7.29 0 0 0 2.74 5.577 16.3 16.3 0 0 0 2.717 1.71c.396.216.805.438 1.218.678q-.062 1.72-.137 3.461c-.113 2.685-.231 5.46-.24 8.213-.035 9.862-.03 19.89-.024 29.587q.004 5.492.005 10.984 0 .186-.002.373c-.004.384-.008.78.024 1.175.11 1.381.89 2.295 1.947 2.295h.062c1.103-.037 1.825-.987 1.842-2.42.01-.789-.014-1.587-.036-2.358-.019-.67-.039-1.36-.037-2.038q.027-13.03.069-26.06l.02-6.9q.005-1.685.007-3.37c.005-2.995.01-6.091.04-9.136.01-.987.076-1.994.14-2.97q.038-.57.072-1.14c3.374-1.215 5.387-3.656 6.511-7.882 1.08-4.06 1.123-8.088 1.024-11.493l-.003-.123c-.007-.36-.015-.808-.279-1.078-.47-.481-1.023-.998-1.63-1.03-.574-.034-1.23.658-1.48 1.17-.164.404-.239.84-.22 1.275-.004.168-.008.336-.025.497-.087.841-.162 1.684-.238 2.527-.177 1.978-.36 4.022-.694 6.001-.217 1.281-.766 2.55-1.297 3.778q-.159.363-.311.725a2.05 2.05 0 0 1-1.152 1.164l-.005-.554c-.006-.669-.012-1.3.01-1.926q.031-.892.068-1.786c.137-3.411.278-6.939-.253-10.413a3.95 3.95 0 0 0-.475-1.558 1.52 1.52 0 0 0-1.302-.534c-.497.05-.828.742-.89.88-.083.23-.11.475-.08.717q.01.124.008.244l-.119 3.289c-.105 2.959-.213 6.019-.345 9.026-.033.725-.128 1.45-.23 2.215l-.09.685c-2.09-.83-3.237-2.356-3.496-4.653"/></svg>
